svgs/regular/list-timeline.svg

<svg xmlns="http://www.w3.org/2000/svg" viewBox="0 0 512 512"><!--! Font Awesome Pro 6.4.2 by @fontawesome - https://fontawesome.com License - https://fontawesome.com/license (Commercial License) Copyright 2023 Fonticons, Inc. --><path d="M219.9 112H400V80H219.9l-16 16 16 16zm-72.6-4.7c-6.2-6.2-6.2-16.4 0-22.6l43.3-43.3c6-6 14.1-9.4 22.6-9.4H416c17.7 0 32 14.3 32 32v64c0 17.7-14.3 32-32 32H213.3c-8.5 0-16.6-3.4-22.6-9.4l-43.3-43.3zM64 128a32 32 0 1 1 0-64 32 32 0 1 1 0 64zm0 160a32 32 0 1 1 0-64 32 32 0 1 1 0 64zM32 416a32 32 0 1 1 64 0 32 32 0 1 1 -64 0zm187.9 16H400V400H219.9l-16 16 16 16zm-72.6-4.7c-6.2-6.2-6.2-16.4 0-22.6l43.3-43.3c6-6 14.1-9.4 22.6-9.4H416c17.7 0 32 14.3 32 32v64c0 17.7-14.3 32-32 32H213.3c-8.5 0-16.6-3.4-22.6-9.4l-43.3-43.3zM203.9 256l16 16H464V240H219.9l-16 16zm-13.3 54.6l-43.3-43.3c-6.2-6.2-6.2-16.4 0-22.6l43.3-43.3c6-6 14.1-9.4 22.6-9.4H480c17.7 0 32 14.3 32 32v64c0 17.7-14.3 32-32 32H213.3c-8.5 0-16.6-3.4-22.6-9.4z"/></svg>

<svg xmlns="http://www.w3.org/2000/svg" viewBox="0 0 512 512"><!--! Font Awesome Pro 6.1.1 by @fontawesome - https://fontawesome.com License - https://fontawesome.com/license (Commercial License) Copyright 2022 Fonticons, Inc. --><path d="M147.3 84.69L190.6 41.37C196.6 35.37 204.8 32 213.3 32H416C433.7 32 448 46.33 448 64V128C448 145.7 433.7 160 416 160H213.3C204.8 160 196.6 156.6 190.6 150.6L147.3 107.3C141.1 101.1 141.1 90.94 147.3 84.69V84.69zM400 111.1V79.1H219.9L203.9 95.1L219.9 111.1H400zM64 63.1C81.67 63.1 96 78.33 96 95.1C96 113.7 81.67 127.1 64 127.1C46.33 127.1 32 113.7 32 95.1C32 78.33 46.33 63.1 64 63.1zM64 223.1C81.67 223.1 96 238.3 96 255.1C96 273.7 81.67 287.1 64 287.1C46.33 287.1 32 273.7 32 255.1C32 238.3 46.33 223.1 64 223.1zM64 448C46.33 448 32 433.7 32 416C32 398.3 46.33 384 64 384C81.67 384 96 398.3 96 416C96 433.7 81.67 448 64 448zM147.3 404.7L190.6 361.4C196.6 355.4 204.8 352 213.3 352H416C433.7 352 448 366.3 448 384V448C448 465.7 433.7 480 416 480H213.3C204.8 480 196.6 476.6 190.6 470.6L147.3 427.3C141.1 421.1 141.1 410.9 147.3 404.7V404.7zM400 432V400H219.9L203.9 416L219.9 432H400zM190.6 310.6L147.3 267.3C141.1 261.1 141.1 250.9 147.3 244.7L190.6 201.4C196.6 195.4 204.8 192 213.3 192H480C497.7 192 512 206.3 512 224V288C512 305.7 497.7 320 480 320H213.3C204.8 320 196.6 316.6 190.6 310.6V310.6zM203.9 255.1L219.9 271.1H464V239.1H219.9L203.9 255.1z"/></svg>
